<?xml version="1.0" encoding="UTF-8"?>
<map version="1.10" tiledversion="1.12.2-2-geb83ddb9" orientation="isometric" renderorder="right-down" width="25" height="25" tilewidth="128" tileheight="64" infinite="0" nextlayerid="5" nextobjectid="31">
 <tileset firstgid="1" source="carrelage1.tsx"/>
 <tileset firstgid="10" source="murSE.tsx"/>
 <tileset firstgid="11" source="murSO.tsx"/>
 <tileset firstgid="12" source="porte.tsx"/>
 <tileset firstgid="13" source="extincteur.tsx"/>
 <tileset firstgid="14" source="camera.tsx"/>
 <tileset firstgid="15" source="bureau_droit.tsx"/>
 <tileset firstgid="16" source="bureau_gauche.tsx"/>
 <tileset firstgid="17" source="bureau_bidirectionnel.tsx"/>
 <tileset firstgid="18" source="chaise_SE.tsx"/>
 <tileset firstgid="19" source="eau_filtrée.tsx"/>
 <tileset firstgid="20" source="caisse.tsx"/>
 <tileset firstgid="21" source="tiroir.tsx"/>
 <tileset firstgid="22" source="gab.tsx"/>
 <tileset firstgid="23" source="U_C_noir.tsx"/>
 <tileset firstgid="24" source="U_C.tsx"/>
 <tileset firstgid="25" source="U_C_Blanc.tsx"/>
 <tileset firstgid="26" source="alerte.tsx"/>
 <tileset firstgid="27" source="certificat.tsx"/>
 <tileset firstgid="28" source="pot_de_fleur.tsx"/>
 <tileset firstgid="29" source="argent1.tsx"/>
 <tileset firstgid="30" source="argent2.tsx"/>
 <tileset firstgid="31" source="argent3.tsx"/>
 <tileset firstgid="32" source="pot_de_fleur1.tsx"/>
 <tileset firstgid="33" source="pot_de_fleur2.tsx"/>
 <tileset firstgid="34" source="chaise_SO.tsx"/>
 <layer id="1" name="sol" width="25" height="25">
  <data encoding="csv">
3,6,6,6,6,6,9,3,9,3,3,3,3,6,6,6,6,9,6,6,9,9,3,4,4,
3,6,9,6,6,6,6,9,3,2,2,2,2,2,2,9,6,3,9,6,3,9,9,4,4,
6,9,6,6,9,6,9,9,9,2,2,2,2,2,2,3,3,3,3,3,3,3,9,4,4,
6,6,6,9,9,6,9,9,3,5,2,2,2,8,2,3,3,3,3,3,3,3,3,4,4,
3,6,6,6,6,6,3,9,9,5,5,5,5,8,2,6,6,9,3,9,9,9,9,4,4,
6,6,6,6,6,6,6,6,6,9,5,5,5,8,2,9,6,6,6,3,9,9,3,4,4,
9,9,6,9,9,6,6,6,6,6,9,9,5,8,2,9,3,3,6,6,6,9,9,4,4,
3,3,6,6,6,6,6,3,6,6,9,9,2,5,2,9,3,9,9,3,3,9,6,4,4,
6,3,6,6,6,6,6,6,6,6,9,9,5,5,2,9,3,9,9,3,3,9,9,4,4,
6,6,6,3,6,6,6,6,6,9,3,9,5,2,2,9,9,9,9,3,3,9,6,4,4,
3,6,6,6,6,6,6,6,6,6,9,9,2,2,2,9,9,3,9,3,9,9,3,4,4,
6,6,9,9,9,6,6,6,6,6,6,9,5,5,2,9,6,3,3,9,9,3,9,4,4,
6,9,9,9,9,6,6,6,6,9,6,9,5,2,2,9,9,3,9,9,9,9,9,4,4,
9,9,6,6,6,6,6,6,6,6,6,6,2,2,2,6,9,9,9,3,6,9,6,4,4,
9,9,9,9,6,9,6,6,6,6,6,3,8,5,2,6,9,3,9,9,9,9,6,4,4,
9,9,3,3,9,9,6,6,6,6,6,9,2,2,2,9,9,9,9,9,9,9,9,4,4,
9,9,9,6,3,9,9,6,6,6,6,6,2,5,2,6,9,9,6,6,6,9,6,4,4,
9,6,9,6,6,9,9,6,6,9,6,6,2,5,2,6,6,9,9,9,6,6,6,4,4,
3,6,9,9,6,9,6,9,3,6,3,6,2,5,2,6,6,6,6,9,9,9,3,4,4,
6,6,6,9,9,6,6,3,9,6,6,6,2,5,2,6,6,9,6,3,3,9,9,4,1,
3,6,6,6,6,6,9,6,9,9,9,6,2,5,2,6,6,6,3,3,3,3,3,4,1,
6,6,6,6,6,6,6,6,6,6,3,6,2,2,2,6,6,6,6,6,6,6,6,4,1,
6,6,6,6,6,6,6,6,9,6,6,6,5,2,6,6,6,3,3,3,3,3,3,4,1,
4,4,4,4,4,4,4,4,7,7,7,7,7,7,7,7,7,7,7,7,7,7,7,4,1,
4,4,4,4,4,4,4,4,4,4,4,4,5,5,4,5,5,5,4,4,4,4,4,4,4
</data>
 </layer>
 <layer id="2" name="Murs_Structures" width="25" height="25">
  <data encoding="csv">
0,11,10,0,10,10,10,10,10,10,10,10,0,10,0,10,0,10,0,10,0,10,0,10,0,
10,0,0,0,0,0,0,0,11,0,0,0,0,0,11,0,0,0,0,0,0,0,0,0,11,
11,0,0,0,0,0,0,0,11,0,0,0,0,0,0,0,0,0,0,0,0,0,0,0,11,
0,0,0,0,0,0,0,0,0,0,0,0,0,0,0,0,0,0,0,0,0,0,0,0,0,
11,0,0,0,0,0,0,0,11,0,0,0,0,0,0,0,0,0,0,0,0,0,0,0,11,
0,0,0,0,0,0,0,0,0,10,0,0,0,0,0,0,0,0,10,0,0,0,0,10,0,
11,0,0,0,0,0,0,0,0,0,11,0,0,0,0,0,0,11,0,0,0,12,0,0,11,
0,0,0,0,0,0,0,0,0,0,11,0,0,0,0,0,0,0,0,0,0,0,0,0,11,
11,0,0,0,0,0,0,0,0,0,0,0,0,0,0,0,0,11,0,0,0,0,0,0,0,
0,0,0,0,0,0,0,0,0,0,11,0,0,0,0,0,0,11,0,0,0,0,0,0,11,
11,0,0,0,0,0,0,0,0,0,0,0,0,0,0,0,0,0,0,0,0,0,0,0,0,
11,0,0,0,0,0,0,0,0,0,11,0,0,0,0,0,0,11,0,0,0,0,0,0,11,
11,0,0,0,0,0,0,0,0,0,0,0,0,0,0,0,0,0,0,0,0,0,0,0,0,
11,0,0,0,0,0,0,0,0,0,0,0,0,0,0,0,0,11,0,0,0,0,0,0,11,
11,0,0,0,0,0,0,0,0,0,0,0,0,0,0,0,0,0,10,0,10,10,0,10,0,
11,0,0,0,0,0,0,0,10,10,0,0,0,0,0,0,0,11,0,0,0,0,0,0,11,
11,0,0,0,0,0,0,11,0,0,0,0,0,0,0,0,0,0,0,0,0,0,0,0,11,
0,0,0,0,0,0,0,0,0,0,0,0,0,0,0,0,0,0,0,0,0,0,0,0,11,
11,0,0,0,0,0,0,11,0,0,0,0,0,0,0,0,0,0,0,0,0,0,0,0,0,
0,0,0,0,0,0,0,0,0,0,0,0,0,0,0,0,0,11,0,0,0,0,0,0,11,
11,0,0,0,0,0,0,11,0,0,0,0,0,0,0,0,0,11,0,0,0,0,0,0,11,
0,0,0,0,0,0,0,0,0,0,0,0,0,0,0,0,0,0,0,0,0,0,0,0,0,
11,0,0,0,0,0,0,11,0,0,0,0,0,0,0,0,0,11,0,0,0,0,0,0,11,
0,10,0,10,10,10,10,0,10,0,10,10,0,0,0,0,10,0,10,10,0,10,0,10,0,
0,0,0,0,0,0,0,0,0,0,0,0,0,0,0,0,0,0,0,0,0,0,0,0,0
</data>
 </layer>
 <layer id="3" name="Mobilier_Obstacles" width="25" height="25">
  <data encoding="csv">
0,0,0,0,0,19,0,0,0,0,0,0,0,0,0,28,0,0,0,28,19,13,0,0,0,
0,0,0,0,0,0,0,0,0,22,0,0,21,0,0,0,0,0,0,0,0,0,0,14,0,
0,0,23,24,25,0,0,0,0,19,17,34,0,0,0,0,0,0,0,0,0,0,0,0,0,
0,21,0,0,0,0,0,0,0,0,0,0,0,0,0,0,0,0,0,0,0,0,0,0,0,
0,28,15,0,0,0,0,0,0,0,0,0,0,0,0,0,0,0,0,0,0,0,0,0,0,
0,0,0,0,0,0,0,0,0,0,0,0,0,0,0,0,0,0,0,13,0,0,0,0,0,
0,0,0,0,0,0,0,0,0,0,0,0,0,0,0,0,0,0,0,0,0,0,0,0,0,
0,25,23,0,0,0,0,0,0,0,0,0,0,0,0,0,0,0,16,0,20,0,0,0,0,
0,21,0,0,0,0,0,0,0,0,0,0,0,0,0,0,0,0,0,19,0,0,0,0,0,
0,33,15,0,0,0,0,0,0,0,0,0,0,0,0,0,0,0,0,0,0,0,0,0,0,
0,0,0,0,0,0,0,0,0,0,0,0,0,0,0,0,0,0,17,18,0,0,0,0,0,
0,0,0,0,0,0,0,0,0,0,0,0,0,0,0,0,0,0,0,0,0,0,0,0,0,
0,25,23,24,0,0,0,0,0,0,0,0,0,0,0,0,0,0,0,0,14,0,0,0,0,
0,21,0,0,0,0,0,0,0,0,0,0,0,0,0,0,0,0,0,0,0,0,0,0,0,
0,0,15,0,0,0,0,0,0,0,0,0,0,0,0,0,26,0,25,0,25,28,0,0,0,
0,0,0,0,0,0,0,0,0,0,0,0,0,0,0,0,0,0,28,0,0,0,0,0,0,
0,32,0,0,0,0,0,0,22,0,0,0,0,0,0,0,0,0,0,29,31,29,0,0,0,
0,0,0,0,0,0,0,0,0,0,0,0,0,0,0,0,26,0,0,31,31,31,0,0,0,
0,0,0,0,0,0,0,0,0,0,0,0,0,0,0,0,0,0,29,30,31,30,0,0,0,
0,19,0,0,0,0,0,0,22,0,0,0,0,0,0,0,27,0,28,30,29,28,0,0,0,
0,0,0,0,0,0,0,0,0,0,0,0,0,0,0,0,0,0,0,0,0,0,0,0,0,
0,0,0,0,0,0,0,0,0,0,0,0,0,0,0,0,0,0,0,0,0,0,0,0,0,
0,0,0,0,0,0,0,0,0,0,14,0,0,0,0,0,14,0,0,0,0,0,0,0,0,
0,0,0,0,0,0,0,0,0,0,0,28,0,0,0,0,28,0,0,0,0,0,0,0,0,
0,0,0,0,0,0,0,0,0,0,0,0,0,0,12,0,0,0,0,0,0,0,0,0,0
</data>
 </layer>
 <objectgroup id="4" name="Collisions_Invisibles" class="Collision">
  <object id="1" type="collision" x="678" y="786">
   <polygon points="0,0 -5,-483 -156,-628 -154,-158"/>
  </object>
  <object id="3" type="collision" x="938" y="146">
   <polygon points="0,0 -162,-158 -162,-274 -9,-143"/>
  </object>
  <object id="4" type="collision" x="39" y="277">
   <polygon points="0,0 122,38 191,-11 178,-86 268,-80 273,-121 122,-270 -57,-275 -56,-228"/>
  </object>
  <object id="6" type="collision" x="80" y="612">
   <polygon points="0,0 97,23 93,-21 135,-11 151,-75 87,-135 99,-143 -52,-284 -156,-280 -157,-243 -72,-164"/>
  </object>
  <object id="7" type="collision" x="487" y="977">
   <polygon points="0,0 187,-3 192,-24 26,-182 -184,-184 -168,320 1,323 0,280 33,315 61,311 72,272 -4,188 -2,90 41,119 68,120 71,73"/>
  </object>
  <object id="8" type="collision" x="596" y="208">
   <polygon points="0,0 31,1 35,-31 59,-11 96,-12 60,-80 97,-57 134,-30 154,-30 160,-56 143,-75 149,-109 183,-91 226,-82 226,-126 152,-208 -59,-209 -159,-289 -178,-282 -177,-239 -147,-209 -166,-178 -153,-155 -91,-89"/>
  </object>
  <object id="9" type="collision" x="939" y="13">
   <polygon points="0,0 48,32 62,26 53,-9 245,-17 305,39 335,37 354,58 396,68 393,39 342,-18 389,-17 418,14 446,18 447,-3 444,-152 -168,-144"/>
  </object>
  <object id="10" type="collision" x="1105" y="1115">
   <polygon points="0,0 27,-23 59,13 64,-12 88,-4 62,-34 65,-69 81,-85 55,-107 30,-146 13,-161 18,-86 2,-82 51,-31"/>
  </object>
  <object id="11" type="collision" x="955" y="989">
   <polygon points="0,0 2,322 162,310 155,133"/>
  </object>
  <object id="12" type="collision" x="335" y="73">
   <polygon points="0,0 37,7 30,-30 -66,-122 -131,-189 -171,-177 -91,-97"/>
  </object>
  <object id="13" type="collision" x="174" y="18">
   <polygon points="0,0 97,-5 203,-7 190,-150 -236,-156 -108,-12"/>
  </object>
  <object id="14" type="collision" x="40" y="288">
   <polygon points="0,0 -6,686 63,753 63,785 42,782 -6,738 -9,889 81,979 76,1012 -13,1009 -159,1007 -156,-388 -54,-286"/>
  </object>
  <object id="15" type="collision" x="133" y="959">
   <polygon points="0,0 37,-1 1,-57 70,-18 61,-57 94,-58 93,-105 63,-135 116,-124 113,-165 -42,-318 -93,-323 -95,-37 -75,-93 -64,-60"/>
  </object>
  <object id="16" type="collision" x="649" y="1311">
   <polygon points="0,0 162,178 -640,168 -778,22"/>
  </object>
  <object id="17" type="collision" x="1417" y="-161">
   <polygon points="0,0 -8,1492 149,1643 161,151"/>
  </object>
  <object id="18" type="collision" x="840" y="1320">
   <polygon points="0,0 577,15 738,174 132,160"/>
  </object>
  <object id="19" type="collision" x="964" y="884">
   <polygon points="0,0 -15,-721 141,-717 307,-535 286,-530 239,-555 118,-570 280,-480 311,-479 355,-443 355,-399 249,-421 245,-381 304,-324 302,-298 277,-293 300,-276 297,-209 293,-153 156,-160"/>
  </object>
  <object id="20" type="collision" x="498" y="298">
   <polygon points="0,0 -117,-119 -2,-114"/>
  </object>
  <object id="21" type="collision" x="399" y="-127">
   <polygon points="0,0 353,-13 354,114 348,136 140,132"/>
  </object>
  <object id="22" type="collision" x="549" y="187">
   <polygon points="0,0 6,-18 -112,-140 -104,-200 -150,-238 -152,-36 -38,-34"/>
  </object>
  <object id="23" type="collision" x="826" y="1334">
   <polygon points="0,0 -6,-30 133,-29 135,-7 154,158"/>
  </object>
  <object id="29" type="collision" x="692" y="1348">
   <polygon points="0,0 135,-7 291,149 134,154"/>
  </object>
  <object id="30" type="collision" x="941" y="151">
   <polygon points="0,0 -22,-2 -176,-160 -183,-285 -158,-274 -162,-158"/>
  </object>
 </objectgroup>
</map>
